T: Hats Off To Hatao
M: 3/4
L: 1/8
K: Gmaj
~ | B6- | B2 ~ instead of ~ | G- | G2 ~f2 (3efe d2 | c2 (3BcB A2 | G6- | G2 b2 ^a2 | ~f2 (3efe d2 | c2 (3BcB A2 | B6- | B2 b2 ^a2 | ~~ | G6- | G2 ~ instead of ~ | E6- | E2 ~d2 (3cdc B2 | A2 (3GAG F2 | E6- | E2 g2 ^f2 | ~d2 (3cdc B2 | A2 (3GAG F2 | G6- | G2 g2 ^f2 | ~
